svg/set/V16/80.svg

<?xml version="1.0" encoding="UTF-8" standalone="no"?>
<svg
   width="310.09375pt"
   height="310.09375pt"
   viewBox="0 0 310.09375 310.09375"
   version="1.1"
   id="svg4"
   xmlns="http://www.w3.org/2000/svg"
   xmlns:svg="http://www.w3.org/2000/svg">
  <defs
     id="defs4" />
  <g
     id="#808080ff"
     transform="translate(0.046875,0.046875)">
    <path
       fill="#808080"
       stroke="#808080"
       stroke-width="0.09375"
       d="m 88.25,0 h 217.2 c -0.12,19.85 -0.14,39.7 -0.15,59.56 -7.84,7.71 -15.97,15.13 -23.91,22.75 -2.91,14.44 -2.11,29.32 -0.03,43.81 4.14,28.2 12.99,55.38 20.56,82.77 3.45,12.71 6.98,25.5 8.08,38.68 v 5.21 c -1.53,17.13 -8.15,35.13 -22.61,45.48 -12.62,9.21 -28.74,10.65 -43.83,11.74 h -3.99 C 171.28,304.53 103.15,297.42 34.96,290.9 29.27,290.61 24.39,287.22 20.04,283.86 9.06,274.81 1.89,261.36 0,247.31 v -5.97 c 1.46,-16.25 11.68,-30.36 23.8,-40.6 17.08,0.4 34.16,1.19 51.24,1.66 1.69,0.11 3.14,-0.96 4.52,-1.78 6.14,-4.17 10.54,-10.39 14.06,-16.81 5.77,-10.8 9.15,-22.7 11.53,-34.66 4.36,-22.63 5.11,-45.79 4.64,-68.78 C 102.59,73.41 95.48,66.36 88.27,59.4 88.21,39.6 88.26,19.8 88.25,0 m 13.39,13.3 c 0.07,13.49 0.01,26.99 0.03,40.49 7.16,7.02 14.34,14.02 21.52,21.02 0.21,28.51 -0.59,57.23 -6.15,85.28 -2.88,13.31 -6.61,26.94 -14.8,38.06 -2.98,4.15 -7.1,7.23 -11.4,9.89 19.38,0.32 38.79,0.69 58.16,0.92 5.95,0.56 11.94,0.26 17.9,0.55 -0.09,-22.55 0.02,-45.09 -0.05,-67.64 7.2,-7.79 14.72,-15.29 21.89,-23.11 0.89,-0.99 1.9,-1.87 2.96,-2.67 7.68,8.72 16.06,16.79 23.89,25.37 0.46,1.48 0.18,3.07 0.26,4.59 -0.07,21.49 0.07,42.97 -0.07,64.46 8.8,0.53 17.62,0.97 26.31,2.47 10.1,1.75 20.46,4.62 28.5,11.27 6.73,5.52 10.95,14.01 11.2,22.73 0.66,12.56 -3.98,25.84 -13.89,33.94 -6.89,5.71 -16.1,7.76 -24.89,7.59 -8.58,-0.07 -17.27,-2.99 -23.62,-8.86 -7.09,-6.49 -12.35,-15.78 -11.95,-25.6 0.26,-7.59 5.04,-14.33 11.1,-18.58 9.2,-6.47 20.32,-10 31.47,-10.94 -9.75,-2.91 -19.94,-3.84 -30.07,-4.03 C 156.26,218.49 92.6,216.16 28.92,214.27 20.15,222.3 13.1,233.7 13.65,246 c 0.88,12.88 9.35,24.21 19.72,31.32 62.88,6.11 125.78,12.09 188.67,18.2 17.29,1.6 35.69,2.73 51.88,-4.74 10.88,-4.86 18.42,-15.44 20.99,-26.91 4.16,-17.39 -0.04,-35.37 -5.59,-51.95 -7.47,-21.64 -13.83,-43.67 -18.68,-66.04 -3.11,-15.07 -5.94,-30.47 -4.43,-45.9 0.41,-8.47 1.55,-16.9 3.6,-25.12 7.38,-6.93 14.66,-13.95 22.05,-20.86 -0.07,-13.59 -0.06,-27.18 -0.01,-40.76 -9.12,0.1 -18.25,0.03 -27.38,0.04 0.08,7.84 0.02,15.68 0.04,23.52 -8.78,-0.04 -17.56,-0.01 -26.35,-0.01 0.01,-7.84 -0.01,-15.67 0.01,-23.5 -9.29,-0.01 -18.58,0.03 -27.86,-0.03 0.08,7.85 0,15.69 0.04,23.54 -9.19,-0.17 -18.39,0.26 -27.56,-0.22 0.04,-2.53 0.1,-5.06 0.19,-7.58 -0.1,-5.26 -0.14,-10.51 -0.07,-15.77 -9.26,0.1 -18.51,0.09 -27.76,0.01 0.08,7.85 -0.01,15.7 0.05,23.55 -8.98,-0.02 -17.96,0 -26.93,-0.01 0.02,-7.83 -0.02,-15.67 0.02,-23.5 -8.88,0.03 -17.77,-0.01 -26.65,0.02 m 140.42,221.97 c 4.92,2.47 10.85,3.68 14.37,8.28 4,5.06 5.66,13.54 0.43,18.35 -4.43,3.82 -10.54,1.9 -15.79,2.32 -5.66,1.09 -10.99,3.46 -16.05,6.16 6.99,7.45 17.93,11.16 27.97,8.83 14.14,-3.61 23.33,-20.24 18.67,-34.12 -4.07,-11.46 -19.44,-16.22 -29.6,-9.82 m -23.32,14.32 c -1.19,4.35 -0.64,9.06 0.82,13.28 8.64,-6.27 18.94,-10.13 29.44,-11.77 -4.83,-5.23 -11.62,-9.56 -19.01,-8.95 -4.63,0.32 -9.76,2.71 -11.25,7.44 z"
       id="path1" />
  </g>
  <g
     id="g4"
     transform="translate(0.046875,0.046875)">
    <path
       stroke="#000000"
       stroke-width="0.09375"
       d="m 101.64,13.3 c 8.88,-0.03 17.77,0.01 26.65,-0.02 -0.04,7.83 0,15.67 -0.02,23.5 8.97,0.01 17.95,-0.01 26.93,0.01 -0.06,-7.85 0.03,-15.7 -0.05,-23.55 9.25,0.08 18.5,0.09 27.76,-0.01 -0.07,5.26 -0.03,10.51 0.07,15.77 -0.09,2.52 -0.15,5.05 -0.19,7.58 9.17,0.48 18.37,0.05 27.56,0.22 -0.04,-7.85 0.04,-15.69 -0.04,-23.54 9.28,0.06 18.57,0.02 27.86,0.03 -0.02,7.83 0,15.66 -0.01,23.5 8.79,0 17.57,-0.03 26.35,0.01 -0.02,-7.84 0.04,-15.68 -0.04,-23.52 9.13,-0.01 18.26,0.06 27.38,-0.04 -0.05,13.58 -0.06,27.17 0.01,40.76 -7.39,6.91 -14.67,13.93 -22.05,20.86 -2.05,8.22 -3.19,16.65 -3.6,25.12 -1.51,15.43 1.32,30.83 4.43,45.9 4.85,22.37 11.21,44.4 18.68,66.04 5.55,16.58 9.75,34.56 5.59,51.95 -2.57,11.47 -10.11,22.05 -20.99,26.91 -16.19,7.47 -34.59,6.34 -51.88,4.74 C 159.15,289.41 96.25,283.43 33.37,277.32 23,270.21 14.53,258.88 13.65,246 c -0.55,-12.3 6.5,-23.7 15.27,-31.73 63.68,1.89 127.34,4.22 191.02,6.23 10.13,0.19 20.32,1.12 30.07,4.03 -11.15,0.94 -22.27,4.47 -31.47,10.94 -6.06,4.25 -10.84,10.99 -11.1,18.58 -0.4,9.82 4.86,19.11 11.95,25.6 6.35,5.87 15.04,8.79 23.62,8.86 8.79,0.17 18,-1.88 24.89,-7.59 9.91,-8.1 14.55,-21.38 13.89,-33.94 -0.25,-8.72 -4.47,-17.21 -11.2,-22.73 -8.04,-6.65 -18.4,-9.52 -28.5,-11.27 -8.69,-1.5 -17.51,-1.94 -26.31,-2.47 0.14,-21.49 0,-42.97 0.07,-64.46 -0.08,-1.52 0.2,-3.11 -0.26,-4.59 -7.83,-8.58 -16.21,-16.65 -23.89,-25.37 -1.06,0.8 -2.07,1.68 -2.96,2.67 -7.17,7.82 -14.69,15.32 -21.89,23.11 0.07,22.55 -0.04,45.09 0.05,67.64 -5.96,-0.29 -11.95,0.01 -17.9,-0.55 -19.37,-0.23 -38.78,-0.6 -58.16,-0.92 4.3,-2.66 8.42,-5.74 11.4,-9.89 8.19,-11.12 11.92,-24.75 14.8,-38.06 5.56,-28.05 6.36,-56.77 6.15,-85.28 -7.18,-7 -14.36,-14 -21.52,-21.02 -0.02,-13.5 0.04,-27 -0.03,-40.49 z"
       id="path2" />
    <path
       stroke="#000000"
       stroke-width="0.09375"
       d="m 242.06,235.27 c 10.16,-6.4 25.53,-1.64 29.6,9.82 4.66,13.88 -4.53,30.51 -18.67,34.12 -10.04,2.33 -20.98,-1.38 -27.97,-8.83 5.06,-2.7 10.39,-5.07 16.05,-6.16 5.25,-0.42 11.36,1.5 15.79,-2.32 5.23,-4.81 3.57,-13.29 -0.43,-18.35 -3.52,-4.6 -9.45,-5.81 -14.37,-8.28 z"
       id="path3" />
    <path
       stroke="#000000"
       stroke-width="0.09375"
       d="m 218.74,249.59 c 1.49,-4.73 6.62,-7.12 11.25,-7.44 7.39,-0.61 14.18,3.72 19.01,8.95 -10.5,1.64 -20.8,5.5 -29.44,11.77 -1.46,-4.22 -2.01,-8.93 -0.82,-13.28 z"
       id="path4" />
  </g>
</svg>

<?xml version="1.0" encoding="UTF-8"?>
<svg xmlns="http://www.w3.org/2000/svg" width="310pt" height="310pt" viewBox="0 0 310 310">
  <g id="#808080ff">
    <path fill="#808080" stroke="#808080" stroke-width="0.09375" d=" M 88.25 0.00 L 305.45 0.00 C 305.33 19.85 305.31 39.70 305.30 59.56 C 297.46 67.27 289.33 74.69 281.39 82.31 C 278.48 96.75 279.28 111.63 281.36 126.12 C 285.50 154.32 294.35 181.50 301.92 208.89 C 305.37 221.60 308.90 234.39 310.00 247.57 L 310.00 252.78 C 308.47 269.91 301.85 287.91 287.39 298.26 C 274.77 307.47 258.65 308.91 243.56 310.00 L 239.57 310.00 C 171.28 304.53 103.15 297.42 34.96 290.90 C 29.27 290.61 24.39 287.22 20.04 283.86 C 9.06 274.81 1.89 261.36 0.00 247.31 L 0.00 241.34 C 1.46 225.09 11.68 210.98 23.80 200.74 C 40.88 201.14 57.96 201.93 75.04 202.40 C 76.73 202.51 78.18 201.44 79.56 200.62 C 85.70 196.45 90.10 190.23 93.62 183.81 C 99.39 173.01 102.77 161.11 105.15 149.15 C 109.51 126.52 110.26 103.36 109.79 80.37 C 102.59 73.41 95.48 66.36 88.27 59.40 C 88.21 39.60 88.26 19.80 88.25 0.00 M 101.64 13.30 C 101.71 26.79 101.65 40.29 101.67 53.79 C 108.83 60.81 116.01 67.81 123.19 74.81 C 123.40 103.32 122.60 132.04 117.04 160.09 C 114.16 173.40 110.43 187.03 102.24 198.15 C 99.26 202.30 95.14 205.38 90.84 208.04 C 110.22 208.36 129.63 208.73 149.00 208.96 C 154.95 209.52 160.94 209.22 166.90 209.51 C 166.81 186.96 166.92 164.42 166.85 141.87 C 174.05 134.08 181.57 126.58 188.74 118.76 C 189.63 117.77 190.64 116.89 191.70 116.09 C 199.38 124.81 207.76 132.88 215.59 141.46 C 216.05 142.94 215.77 144.53 215.85 146.05 C 215.78 167.54 215.92 189.02 215.78 210.51 C 224.58 211.04 233.40 211.48 242.09 212.98 C 252.19 214.73 262.55 217.60 270.59 224.25 C 277.32 229.77 281.54 238.26 281.79 246.98 C 282.45 259.54 277.81 272.82 267.90 280.92 C 261.01 286.63 251.80 288.68 243.01 288.51 C 234.43 288.44 225.74 285.52 219.39 279.65 C 212.30 273.16 207.04 263.87 207.44 254.05 C 207.70 246.46 212.48 239.72 218.54 235.47 C 227.74 229.00 238.86 225.47 250.01 224.53 C 240.26 221.62 230.07 220.69 219.94 220.50 C 156.26 218.49 92.60 216.16 28.92 214.27 C 20.15 222.30 13.10 233.70 13.65 246.00 C 14.53 258.88 23.00 270.21 33.37 277.32 C 96.25 283.43 159.15 289.41 222.04 295.52 C 239.33 297.12 257.73 298.25 273.92 290.78 C 284.80 285.92 292.34 275.34 294.91 263.87 C 299.07 246.48 294.87 228.50 289.32 211.92 C 281.85 190.28 275.49 168.25 270.64 145.88 C 267.53 130.81 264.70 115.41 266.21 99.98 C 266.62 91.51 267.76 83.08 269.81 74.86 C 277.19 67.93 284.47 60.91 291.86 54.00 C 291.79 40.41 291.80 26.82 291.85 13.24 C 282.73 13.34 273.60 13.27 264.47 13.28 C 264.55 21.12 264.49 28.96 264.51 36.80 C 255.73 36.76 246.95 36.79 238.16 36.79 C 238.17 28.95 238.15 21.12 238.17 13.29 C 228.88 13.28 219.59 13.32 210.31 13.26 C 210.39 21.11 210.31 28.95 210.35 36.80 C 201.16 36.63 191.96 37.06 182.79 36.58 C 182.83 34.05 182.89 31.52 182.98 29.00 C 182.88 23.74 182.84 18.49 182.91 13.23 C 173.65 13.33 164.40 13.32 155.15 13.24 C 155.23 21.09 155.14 28.94 155.20 36.79 C 146.22 36.77 137.24 36.79 128.27 36.78 C 128.29 28.95 128.25 21.11 128.29 13.28 C 119.41 13.31 110.52 13.27 101.64 13.30 M 242.06 235.27 C 246.98 237.74 252.91 238.95 256.43 243.55 C 260.43 248.61 262.09 257.09 256.86 261.90 C 252.43 265.72 246.32 263.80 241.07 264.22 C 235.41 265.31 230.08 267.68 225.02 270.38 C 232.01 277.83 242.95 281.54 252.99 279.21 C 267.13 275.60 276.32 258.97 271.66 245.09 C 267.59 233.63 252.22 228.87 242.06 235.27 M 218.74 249.59 C 217.55 253.94 218.10 258.65 219.56 262.87 C 228.20 256.60 238.50 252.74 249.00 251.10 C 244.17 245.87 237.38 241.54 229.99 242.15 C 225.36 242.47 220.23 244.86 218.74 249.59 Z"/>
  </g>
  <g>
    <path stroke="#000000" stroke-width="0.09375" d=" M 101.64 13.30 C 110.52 13.27 119.41 13.31 128.29 13.28 C 128.25 21.11 128.29 28.95 128.27 36.78 C 137.24 36.79 146.22 36.77 155.20 36.79 C 155.14 28.94 155.23 21.09 155.15 13.24 C 164.40 13.32 173.65 13.33 182.91 13.23 C 182.84 18.49 182.88 23.74 182.98 29.00 C 182.89 31.52 182.83 34.05 182.79 36.58 C 191.96 37.06 201.16 36.63 210.35 36.80 C 210.31 28.95 210.39 21.11 210.31 13.26 C 219.59 13.32 228.88 13.28 238.17 13.29 C 238.15 21.12 238.17 28.95 238.16 36.79 C 246.95 36.79 255.73 36.76 264.51 36.80 C 264.49 28.96 264.55 21.12 264.47 13.28 C 273.60 13.27 282.73 13.34 291.85 13.24 C 291.80 26.82 291.79 40.41 291.86 54.00 C 284.47 60.91 277.19 67.93 269.81 74.86 C 267.76 83.08 266.62 91.51 266.21 99.98 C 264.70 115.41 267.53 130.81 270.64 145.88 C 275.49 168.25 281.85 190.28 289.32 211.92 C 294.87 228.50 299.07 246.48 294.91 263.87 C 292.34 275.34 284.80 285.92 273.92 290.78 C 257.73 298.25 239.33 297.12 222.04 295.52 C 159.15 289.41 96.25 283.43 33.37 277.32 C 23.00 270.21 14.53 258.88 13.65 246.00 C 13.10 233.70 20.15 222.30 28.92 214.27 C 92.60 216.16 156.26 218.49 219.94 220.50 C 230.07 220.69 240.26 221.62 250.01 224.53 C 238.86 225.47 227.74 229.00 218.54 235.47 C 212.48 239.72 207.70 246.46 207.44 254.05 C 207.04 263.87 212.30 273.16 219.39 279.65 C 225.74 285.52 234.43 288.44 243.01 288.51 C 251.80 288.68 261.01 286.63 267.90 280.92 C 277.81 272.82 282.45 259.54 281.79 246.98 C 281.54 238.26 277.32 229.77 270.59 224.25 C 262.55 217.60 252.19 214.73 242.09 212.98 C 233.40 211.48 224.58 211.04 215.78 210.51 C 215.92 189.02 215.78 167.54 215.85 146.05 C 215.77 144.53 216.05 142.94 215.59 141.46 C 207.76 132.88 199.38 124.81 191.70 116.09 C 190.64 116.89 189.63 117.77 188.74 118.76 C 181.57 126.58 174.05 134.08 166.85 141.87 C 166.92 164.42 166.81 186.96 166.90 209.51 C 160.94 209.22 154.95 209.52 149.00 208.96 C 129.63 208.73 110.22 208.36 90.84 208.04 C 95.14 205.38 99.26 202.30 102.24 198.15 C 110.43 187.03 114.16 173.40 117.04 160.09 C 122.60 132.04 123.40 103.32 123.19 74.81 C 116.01 67.81 108.83 60.81 101.67 53.79 C 101.65 40.29 101.71 26.79 101.64 13.30 Z"/>
    <path stroke="#000000" stroke-width="0.09375" d=" M 242.06 235.27 C 252.22 228.87 267.59 233.63 271.66 245.09 C 276.32 258.97 267.13 275.60 252.99 279.21 C 242.95 281.54 232.01 277.83 225.02 270.38 C 230.08 267.68 235.41 265.31 241.07 264.22 C 246.32 263.80 252.43 265.72 256.86 261.90 C 262.09 257.09 260.43 248.61 256.43 243.55 C 252.91 238.95 246.98 237.74 242.06 235.27 Z"/>
    <path stroke="#000000" stroke-width="0.09375" d=" M 218.74 249.59 C 220.23 244.86 225.36 242.47 229.99 242.15 C 237.38 241.54 244.17 245.87 249.00 251.10 C 238.50 252.74 228.20 256.60 219.56 262.87 C 218.10 258.65 217.55 253.94 218.74 249.59 Z"/>
  </g>
</svg>
